X:1
T:Title
%%score { ( 1 3 5 ) | ( 2 4 ) }
L:1/8
M:4/4
K:F
V:1 treble nm="Grand Piano"
V:3 treble 
V:5 treble 
V:2 bass 
V:4 bass 
V:1
 z4 z2[Q:1/4=100] C>C | F>F F>G A2 B>A | [EG]6 z2 | [EG]>[EG] [EG]>[FA] [GB]2 [Ac]>[GB] | %4
 [FA]6 z2 | d>d d>d d>B F>d | c>c c>c c>A F>A | [EG]>[EG] [EG]>[FA] [GB]>[GB] [FA]>G |[M:3/4] F6 | %9
[M:1/4] c>c |[M:4/4] d6 z2 | c6 z2 | =B6 z2 |[M:9/8] c6- c z z |[M:4/4] z [Ac]3 z4 | d6 z2 | %16
 c6 z2 |[M:3/4] F6 |] %18
V:2
 z4 z2 [F,A,]>[F,A,] | [F,A,C]>[F,A,C] [F,A,C]>[F,C] [F,CF]2 [F,DF]>[F,CF] | %2
 [C,C]2 C,>C, C,2 [C,G,C]>[C,G,] | [C,C]>[C,C] [C,C]>[C,C] [C,C]2 [C,C]>[C,C] | %4
 [F,C]2 F,>F, F,2[K:treble] [F,A,F]>[F,A,F] | [B,F]>[B,F] [B,F]>[B,F] [B,F]>[B,D] [B,D]>[B,F] | %6
 [F,A,F]>[F,A,F] [F,A,F]>[F,A,F] [F,A,F]>[F,CF] [F,A,]>[F,CF] | %7
 [C,C]>[C,C] [C,C]>[C,C] [C,C]>[C,C] [C,C]>[C,B,C] |[M:3/4] [A,C]2 B,>B, A,2 | %9
[M:1/4][K:treble] [F,A,F]>[F,A,F] |[M:4/4] [B,F]>B, B,>B, B,2 [B,D]>[B,F] | %11
 [F,A,F]>[F,A,] [F,A,]>[F,A,] [F,A,]2 [F,A,F]>[F,A,F] | [G,D]>G, G,>G, G,2[K:treble] [G,F]>[G,F] | %13
[M:9/8][K:bass] [C,G,]>[C,F,][C,A,]- [C,A,]/[C,A,]/ [C,B,]2- [C,B,][F,CF]>[F,C] | %14
[M:4/4] [F,C][F,C]F,F,[K:treble] [F,CF][F,CF][G,CE][A,C] | %15
 [B,F]2[K:bass] [B,,B,]>[B,,B,] [B,,B,]2 z2 | z2 [C,A,]>[C,A,] [C,A,]2 [C,C]>[C,B,] | %17
[M:3/4] [F,A,]2 [F,B,]>[F,B,] [F,A,]2 |] %18
V:3
 x8 | x8 | z2 C>C C2 E>[DF] | x8 | z2 C>C C2 c>c | x8 | x8 | x8 |[M:3/4] z2 D>D C2 |[M:1/4] x2 | %10
[M:4/4] z z/ F/ F>F z z/ B/ F>d | z z/ F/ F>F F2 c>c | z z/ D/ D>D z z/ G/ A>=B | %13
[M:9/8] E>EF- F/F/ G2- GA>[GB] |[M:4/4] .[Ac]2 CC AAGF | z2 F>F F2 B>d | z2 F>F F2 [EA]>[EG] | %17
[M:3/4] z2 D>D C2 |] %18
V:4
 x8 | x8 | x8 | x8 | x6[K:treble] x2 | x8 | x8 | x8 |[M:3/4] F,6 |[M:1/4][K:treble] x2 | %10
[M:4/4] x8 | x8 | x6[K:treble] x2 |[M:9/8][K:bass] x9 |[M:4/4] x4[K:treble] x4 | x2[K:bass] x6 | %16
 x8 |[M:3/4] x6 |] %18
V:5
 x8 | x8 | x8 | x8 | x8 | x8 | x8 | x8 |[M:3/4] x6 |[M:1/4] x2 |[M:4/4] z4 F2 z2 | x8 | z4 D2 z2 | %13
[M:9/8] x9 |[M:4/4] x8 | x8 | x8 |[M:3/4] x6 |] %18

